X: 6
T: The Perl Wedding
M: 4/4
L: 1/8
K: D
FE || D3 E DFAd | f3 e d B-BA | FAAB AFAd | ceef ecAF | 
D3 E DFAd | f3 e d B-BA | FAAB AFAd |1 (3Bcd ec dAAA :||2 (3Bcd ec d2 ||
fd | a3 g (3fgf ed | BddB AFEF | DFAd fafd | ceef e2 fg |
     a3 g (3fgf ed | BddB AFEF | DFAD FAAd | (3Bcd ec d2 :||

